X:31
%%score 1 2
%%pagewidth 7.5in
%%vocalfont Baskerville10Pro 11
T:The doleful dance and song of death
M:6/8
L:1/8
K:G
V:1 clef-treble
V:2 clef-bass octave=-1
V:1
[DFA]|[DGB]2G d2B|G2D GB2|A2c (B>A)G & D6|(G>F)G [DA]2[DFA] & ^C3 x3|
w:Can you dance The shaking of the sheets, A dance that ev'-*ry one must do; Can you
V:2
D|G6-|G6|F3 G3|E3 F2[D=c]|
V:1
[DGB]2G d2B|G2D GB2|A2c (B>A)G & D6|(FA)B [CGc]2 [Gd] & D3 x3|
w:trim it up with dain-ty sweets, And ev'-ry thing* that 'longs* there-to? Make 
V:2
G6-&B3x3|G6|[FA]3 G3| [DA]3 [EG]2 B,|
V:1
[EGe]2c [Gd]2 [EGc]|(B>A)G [FA]2D & [DG]2 x4|G2F [B,DG]2D & [CE]3 x3|(B>A)G [FA]2[DFA] & [DG]2 x4|
w:rea-dy, then, your wind-ing* sheet, And see how ye~can be stir your feet, For*
V:2
(C3B,2)A,|D3-D2D|G,3-G,2B,|D3-D2D|
V:1
[EGe]2c [Gd]2 [EGc]|(B>A)G [FA]2D & [DG]2 x4|G2F [B,DG]2D & [CE]3 x3|[DFB][CA]2 [B,G]2||
w:Death is~the man that all* must meet, For death is~the man that all must meet.
V:2
(C3B,2)A,|D3-D2D|G,3G,2B,|D3 G2||

